public/assets/images/career/15.svg

<svg width="20" height="20" viewBox="0 0 20 20" fill="none" xmlns="http://www.w3.org/2000/svg">
<path fill-rule="evenodd" clip-rule="evenodd" d="M16.0417 2.81599C15.7334 2.60997 15.3708 2.5 15 2.5C14.5027 2.5 14.0258 2.69754 13.6742 3.04917C13.3225 3.40081 13.125 3.87772 13.125 4.375C13.125 4.74584 13.235 5.10835 13.441 5.41669C13.647 5.72504 13.9399 5.96536 14.2825 6.10727C14.6251 6.24919 15.0021 6.28632 15.3658 6.21397C15.7295 6.14162 16.0636 5.96305 16.3258 5.70083C16.5881 5.4386 16.7666 5.10451 16.839 4.74079C16.9113 4.37708 16.8742 4.00008 16.7323 3.65747C16.5904 3.31486 16.35 3.02202 16.0417 2.81599ZM13.2638 1.77666C13.7777 1.43328 14.3819 1.25 15 1.25C15.8288 1.25 16.6237 1.57924 17.2097 2.16529C17.7958 2.75134 18.125 3.5462 18.125 4.375C18.125 4.99307 17.9417 5.59725 17.5983 6.11116C17.255 6.62506 16.7669 7.0256 16.1959 7.26212C15.6249 7.49865 14.9965 7.56053 14.3903 7.43995C13.7842 7.31938 13.2273 7.02175 12.7903 6.58471C12.3533 6.14767 12.0556 5.59085 11.935 4.98466C11.8145 4.37847 11.8764 3.75013 12.1129 3.17911C12.3494 2.60809 12.7499 2.12004 13.2638 1.77666ZM15 8.75H16.25C17.0785 8.75096 17.8728 9.08051 18.4586 9.66635C19.0445 10.2522 19.374 11.0465 19.375 11.875V14.375H18.125V11.875C18.1245 11.3779 17.9267 10.9013 17.5752 10.5498C17.2237 10.1983 16.7471 10.0005 16.25 10H15V8.75ZM14.375 18.75H13.125V17.5C13.1245 17.0029 12.9267 16.5263 12.5752 16.1748C12.2237 15.8233 11.7471 15.6255 11.25 15.625H8.75C8.25289 15.6255 7.77629 15.8233 7.42478 16.1748C7.07327 16.5263 6.87555 17.0029 6.875 17.5V18.75H5.625V17.5C5.62598 16.6715 5.95553 15.8772 6.54137 15.2914C7.12721 14.7055 7.9215 14.376 8.75 14.375H11.25C12.0785 14.376 12.8728 14.7055 13.4586 15.2914C14.0445 15.8772 14.374 16.6715 14.375 17.5V18.75ZM11.0417 8.44099C10.7334 8.23497 10.3708 8.125 10 8.125C9.50272 8.125 9.02581 8.32254 8.67418 8.67417C8.32255 9.02581 8.125 9.50272 8.125 10C8.125 10.3708 8.23497 10.7334 8.441 11.0417C8.64702 11.35 8.93986 11.5904 9.28247 11.7323C9.62508 11.8742 10.0021 11.9113 10.3658 11.839C10.7295 11.7666 11.0636 11.588 11.3258 11.3258C11.5881 11.0636 11.7666 10.7295 11.839 10.3658C11.9113 10.0021 11.8742 9.62508 11.7323 9.28247C11.5904 8.93986 11.35 8.64702 11.0417 8.44099ZM8.26384 7.40166C8.77775 7.05828 9.38194 6.875 10 6.875C10.8288 6.875 11.6237 7.20424 12.2097 7.79029C12.7958 8.37634 13.125 9.1712 13.125 10C13.125 10.6181 12.9417 11.2223 12.5983 11.7362C12.255 12.2501 11.7669 12.6506 11.1959 12.8871C10.6249 13.1236 9.99654 13.1855 9.39034 13.065C8.78415 12.9444 8.22733 12.6467 7.79029 12.2097C7.35325 11.7727 7.05563 11.2158 6.93505 10.6097C6.81447 10.0035 6.87635 9.37513 7.11288 8.80411C7.3494 8.2331 7.74994 7.74504 8.26384 7.40166ZM5 8.75H3.75C2.9215 8.75098 2.12721 9.08053 1.54137 9.66637C0.955529 10.2522 0.625976 11.0465 0.625 11.875V14.375H1.875V11.875C1.87555 11.3779 2.07327 10.9013 2.42478 10.5498C2.77629 10.1983 3.25289 10.0005 3.75 10H5V8.75ZM6.04169 2.81599C5.73335 2.60997 5.37084 2.5 5 2.5C4.50272 2.5 4.0258 2.69754 3.67417 3.04917C3.32254 3.40081 3.125 3.87772 3.125 4.375C3.125 4.74584 3.23496 5.10835 3.44099 5.41669C3.64702 5.72504 3.93985 5.96536 4.28247 6.10727C4.62508 6.24919 5.00208 6.28632 5.36579 6.21397C5.72951 6.14162 6.0636 5.96305 6.32582 5.70083C6.58805 5.4386 6.76662 5.10451 6.83897 4.74079C6.91132 4.37708 6.87419 4.00008 6.73227 3.65747C6.59036 3.31486 6.35003 3.02202 6.04169 2.81599ZM3.26384 1.77666C3.77774 1.43328 4.38193 1.25 5 1.25C5.8288 1.25 6.62365 1.57924 7.20971 2.16529C7.79576 2.75134 8.125 3.5462 8.125 4.375C8.125 4.99307 7.94172 5.59725 7.59834 6.11116C7.25496 6.62506 6.7669 7.0256 6.19588 7.26212C5.62486 7.49865 4.99653 7.56053 4.39034 7.43995C3.78415 7.31938 3.22733 7.02175 2.79029 6.58471C2.35325 6.14767 2.05562 5.59085 1.93504 4.98466C1.81446 4.37847 1.87635 3.75013 2.11287 3.17911C2.3494 2.60809 2.74994 2.12004 3.26384 1.77666Z" fill="#050D20"/>
</svg>

<svg xmlns="http://www.w3.org/2000/svg" width="20" height="20" fill="none" viewBox="0 0 20 20"><path fill="#050d20" fill-rule="evenodd" d="M16.042 2.816a1.875 1.875 0 1 0-2.084 3.118 1.875 1.875 0 0 0 2.084-3.118m-2.778-1.04a3.125 3.125 0 1 1 3.472 5.197 3.125 3.125 0 0 1-3.472-5.196M15 8.75h1.25a3.13 3.13 0 0 1 3.125 3.125v2.5h-1.25v-2.5A1.877 1.877 0 0 0 16.25 10H15zm-.625 10h-1.25V17.5a1.877 1.877 0 0 0-1.875-1.875h-2.5A1.877 1.877 0 0 0 6.875 17.5v1.25h-1.25V17.5a3.13 3.13 0 0 1 3.125-3.125h2.5a3.13 3.13 0 0 1 3.125 3.125zM11.042 8.441a1.875 1.875 0 1 0-2.084 3.118 1.875 1.875 0 0 0 2.084-3.118m-2.778-1.04a3.125 3.125 0 1 1 3.472 5.197 3.125 3.125 0 0 1-3.472-5.196M5 8.75H3.75a3.13 3.13 0 0 0-3.125 3.125v2.5h1.25v-2.5A1.877 1.877 0 0 1 3.75 10H5zm1.042-5.934a1.875 1.875 0 1 0-2.084 3.118 1.875 1.875 0 0 0 2.084-3.118m-2.778-1.04a3.125 3.125 0 1 1 3.472 5.197 3.125 3.125 0 0 1-3.472-5.196" clip-rule="evenodd"/></svg>
